SVG/sign-out.svg

<?xml version="1.0" encoding="utf-8"?>
<!-- Generated by IcoMoon.io -->
<!DOCTYPE svg PUBLIC "-//W3C//DTD SVG 1.1//EN" "http://www.w3.org/Graphics/SVG/1.1/DTD/svg11.dtd">
<svg version="1.1" xmlns="http://www.w3.org/2000/svg" xmlns:xlink="http://www.w3.org/1999/xlink" width="13" height="14" viewBox="0 0 13 14">
<path fill="#444444" d="M5 11.25q0 0.031 0.008 0.156t0.004 0.207-0.023 0.184-0.078 0.152-0.16 0.051h-2.5q-0.93 0-1.59-0.66t-0.66-1.59v-5.5q0-0.93 0.66-1.59t1.59-0.66h2.5q0.102 0 0.176 0.074t0.074 0.176q0 0.031 0.008 0.156t0.004 0.207-0.023 0.184-0.078 0.152-0.16 0.051h-2.5q-0.516 0-0.883 0.367t-0.367 0.883v5.5q0 0.516 0.367 0.883t0.883 0.367h2.438t0.090 0.008 0.090 0.023 0.062 0.043 0.055 0.070 0.016 0.105zM12.25 7q0 0.203-0.148 0.352l-4.25 4.25q-0.148 0.148-0.352 0.148t-0.352-0.148-0.148-0.352v-2.25h-3.5q-0.203 0-0.352-0.148t-0.148-0.352v-3q0-0.203 0.148-0.352t0.352-0.148h3.5v-2.25q0-0.203 0.148-0.352t0.352-0.148 0.352 0.148l4.25 4.25q0.148 0.148 0.148 0.352z"></path>
</svg>

<svg xmlns="http://www.w3.org/2000/svg" viewBox="0 0 13 14"><path d="M5 11.25q0 .03.008.156t.004.207-.023.184-.08.152-.16.05h-2.5q-.93 0-1.59-.66T0 9.75v-5.5q0-.93.66-1.59T2.25 2h2.5q.103 0 .177.074T5 2.25q0 .03.01.156t.003.207-.023.184-.078.152-.16.05h-2.5q-.516 0-.883.367T1 4.25v5.5q0 .516.367.883T2.25 11H4.69l.09.008.09.023.062.044.055.07.016.105zM12.25 7q0 .203-.148.352l-4.25 4.25q-.148.148-.352.148t-.352-.148T7 11.25V9H3.5q-.203 0-.352-.148T3 8.5v-3q0-.203.148-.352T3.5 5H7V2.75q0-.203.148-.352T7.5 2.25t.352.148l4.25 4.25q.148.148.148.352z" /></svg>
